public/static/icons/ic_notification_mail.svg

<svg height="24" viewBox="0 0 24 24" width="24" xmlns="http://www.w3.org/2000/svg" xmlns:xlink="http://www.w3.org/1999/xlink"><defs><linearGradient id="a" x1="0%" x2="100%" y1="37.93%" y2="62.07%"><stop offset="0" stop-color="#ffa48d"/><stop offset="1" stop-color="#b72136"/></linearGradient><path id="b" d="m2.15609375.29484375h12.00031245c1.1045695 0 2 .8954305 2 2v15.99953125h-16.00031245v-15.99953125c0-1.1045695.8954305-2 2-2z"/><mask id="c" fill="#fff"><use fill="#fff" fill-rule="evenodd" xlink:href="#b"/></mask></defs><g fill="none" fill-rule="evenodd"><path d="m24 9.585-.703 8.935h-22.594l-.703-8.935 4-2.857h16z" fill="url(#a)"/><g transform="translate(3.844 .719)"><use fill="#d0f2ff" xlink:href="#b"/><path d="m3.21345312 3.02020312h4.74279688c.11045695 0 .2.08954306.2.2v1.00625c0 .11045695-.08954305.2-.2.2h-4.74279688c-.11045694 0-.2-.08954305-.2-.2v-1.00625c0-.11045694.08954306-.2.2-.2zm.00014063 3.42839063h9.88531245c.110457 0 .2.08954305.2.2v1.00625c0 .11045695-.089543.2-.2.2h-9.88531245c-.11045695 0-.2-.08954305-.2-.2v-1.00625c0-.11045695.08954305-.2.2-.2zm0 3.4284375h9.88531245c.110457 0 .2.08954305.2.19999995v1.00625c0 .110457-.089543.2-.2.2h-9.88531245c-.11045695 0-.2-.089543-.2-.2v-1.00625c0-.1104569.08954305-.19999995.2-.19999995z" fill="#74caff" mask="url(#c)"/></g><path d="m24 9.585v13.714l-12-1.115-12 1.115v-13.714l9.6 6.857h4.8z" fill="#ffa48d"/><path d="m24 9.585v13.714l-12-1.115v-5.742h2.4z" fill="#ff4842"/><path d="m24 23.299h-24l12-8.571z" fill="#ff4842"/><path d="m24 23.299h-12v-8.571z" fill="#b72136"/></g></svg>

<svg xmlns="http://www.w3.org/2000/svg" xmlns:xlink="http://www.w3.org/1999/xlink" width="24" height="24" viewBox="0 0 24 24">
  <defs>
    <linearGradient id="ic_notification_mail-a" x1="0%" x2="100%" y1="37.93%" y2="62.07%">
      <stop offset="0%" stop-color="#FFA48D"/>
      <stop offset="100%" stop-color="#B72136"/>
    </linearGradient>
    <path id="ic_notification_mail-b" d="M2.15609375,0.29484375 L14.1564062,0.29484375 C15.2609757,0.29484375 16.1564062,1.19027425 16.1564062,2.29484375 L16.1564062,18.294375 L16.1564062,18.294375 L0.15609375,18.294375 L0.15609375,2.29484375 C0.15609375,1.19027425 1.05152425,0.29484375 2.15609375,0.29484375 Z"/>
  </defs>
  <g fill="none" fill-rule="evenodd">
    <polygon fill="url(#ic_notification_mail-a)" points="24 9.585 23.297 18.52 .703 18.52 0 9.585 4 6.728 20 6.728"/>
    <g transform="translate(3.844 .719)">
      <mask id="ic_notification_mail-c" fill="#fff">
        <use xlink:href="#ic_notification_mail-b"/>
      </mask>
      <use fill="#D0F2FF" xlink:href="#ic_notification_mail-b"/>
      <path fill="#74CAFF" d="M3.21345312 3.02020312L7.95625 3.02020312C8.06670695 3.02020312 8.15625 3.10974618 8.15625 3.22020312L8.15625 4.22645312C8.15625 4.33691007 8.06670695 4.42645312 7.95625 4.42645312L3.21345312 4.42645312C3.10299618 4.42645312 3.01345312 4.33691007 3.01345312 4.22645312L3.01345312 3.22020312C3.01345312 3.10974618 3.10299618 3.02020312 3.21345312 3.02020312zM3.21359375 6.44859375L13.0989062 6.44859375C13.2093632 6.44859375 13.2989062 6.5381368 13.2989062 6.64859375L13.2989062 7.65484375C13.2989062 7.7653007 13.2093632 7.85484375 13.0989062 7.85484375L3.21359375 7.85484375C3.1031368 7.85484375 3.01359375 7.7653007 3.01359375 7.65484375L3.01359375 6.64859375C3.01359375 6.5381368 3.1031368 6.44859375 3.21359375 6.44859375zM3.21359375 9.87703125L13.0989062 9.87703125C13.2093632 9.87703125 13.2989062 9.9665743 13.2989062 10.0770312L13.2989062 11.0832812C13.2989062 11.1937382 13.2093632 11.2832812 13.0989062 11.2832812L3.21359375 11.2832812C3.1031368 11.2832812 3.01359375 11.1937382 3.01359375 11.0832812L3.01359375 10.0770312C3.01359375 9.9665743 3.1031368 9.87703125 3.21359375 9.87703125z" mask="url(#ic_notification_mail-c)"/>
    </g>
    <polygon fill="#FFA48D" points="24 9.585 24 23.299 12 22.184 0 23.299 0 9.585 9.6 16.442 14.4 16.442"/>
    <polygon fill="#FF4842" points="24 9.585 24 23.299 12 22.184 12 16.442 14.4 16.442"/>
    <polygon fill="#FF4842" points="24 23.299 0 23.299 12 14.728"/>
    <polygon fill="#B72136" points="24 23.299 12 23.299 12 14.728"/>
  </g>
</svg>
